!!! OTL: Berkowitz551
!!! Chapter: 1
!!! Section: V
!!! Page: 139
!!! Mode: 
!!! Encoder: DJB
**kern
*staff1
*I"Piano
=1-
*clefC4
*k[]
*C:
*M3/4
8D/L
8E/J
8F/L
8G/J
8A-\L
8B-\J
=2
2B\
4B-\
=3
8B\L
8c#\J
8B\L
8B-\J
8A-/L
8G/J
=4
2A-\
4G/
=5
8F/L
8G/J
8A-/L
8G/J
8F/L
8E/J
=6
4D/
4E/
4E/
=7
8D/L
8E/J
8F/L
8G/J
8A-\L
8B-\J
=8
2B\
4r
=9
!!linebreak:original
8D/L
8E/J
8F/L
8G/J
8A-\L
8B-\J
=10
8B\L
8c#\J
8B\L
8B-\J
8A-/L
8G/J
=11
8F/L
8G/J
8A-/L
8G/J
8F/L
8E/J
=12
2.D/
==
*-
